packages/ffe-icons/icons/filled/md/shopping_basket.svg

<svg xmlns="http://www.w3.org/2000/svg" height="24" viewBox="0 -960 960 960" width="24"><path d="M231.385-140.001q-24.307 0-43.576-14.577-19.269-14.577-26.115-38.269L66.617-533.999q-4.615-17.077 5.923-31.538 10.539-14.462 28.615-14.462h188.846l165.23-247.383q3.847-6.077 10.539-9.731 6.692-3.653 13.999-3.653 7.308 0 14 3.653 6.692 3.654 10.538 9.731l164.461 247.383h190.077q18.076 0 28.807 14.462 10.731 14.461 5.731 31.538l-95.846 341.152q-6.846 23.692-26.115 38.269-19.269 14.577-43.577 14.577h-496.46Zm248.615-160q24.538 0 42.268-17.731 17.731-17.73 17.731-42.268t-17.731-42.268q-17.73-17.731-42.268-17.731t-42.268 17.731q-17.731 17.73-17.731 42.268t17.731 42.268q17.73 17.731 42.268 17.731ZM362.769-579.999h233.847L479.385-756.461 362.769-579.999Z"/></svg>

<svg xmlns="http://www.w3.org/2000/svg" height="24" viewBox="0 -960 960 960" width="24"><path d="M231.39-140q-24.31 0-43.58-14.58t-26.12-38.27L66.62-534q-4.62-17.08 5.92-31.54T101.16-580H290l165.23-247.38q3.85-6.08 10.54-9.73 6.69-3.66 14-3.66t14 3.66q6.69 3.65 10.54 9.73L668.77-580h190.07q18.08 0 28.81 14.46t5.73 31.54l-95.84 341.15q-6.85 23.69-26.12 38.27Q752.15-140 727.85-140H231.39ZM480-300q24.54 0 42.27-17.73Q540-335.46 540-360q0-24.54-17.73-42.27Q504.54-420 480-420q-24.54 0-42.27 17.73Q420-384.54 420-360q0 24.54 17.73 42.27Q455.46-300 480-300ZM362.77-580h233.85L479.38-756.46 362.77-580Z"/></svg>
